!!!OTL: VIVAT BACCHUS BACCHUS LEBE
!!!ARE: Europa, Mitteleuropa, Deutschland
!!!SCT: F0533
!!!YEM: Copyright 1995, estate of Helmut Schaffrath.
**kern
*ICvox
*Ivox
*M2/4
*k[b-]
*F:
=1
{8.f
16f
8f
8f
=2
8f
8c
8A
8c}
=3
{4f
4cc
=4
4a
4f}
=5
{4.g
8g
=6
4.g
8f
=7
4e
4d
=8
4c
4r}
=9
{8.f
16f
8f
8f
=10
8f
8c
8A
8c}
=11
{4f
4cc
=12
4a
4f}
=13
{4.g
8g
=14
4.g
8f
=15
4e
4d
=16
4c
8r}
{8f
=17
8e
8d
8e
8f
=18
8g
8a
8g}
{8f
=19
8e
8d
8e
8f
=20
8g
8a
8g}
{8f
=21
8e
8e
8d
8g
=22
4cc
8r}
{8b-
=23
8a
8g
8a
8b-
=24
8cc
8dd
8cc}
{8b-
=25
8a
8g
8a
8b-
=26
8cc
8dd
8cc}
{8b-
=27
8a
8a
8g
8g
=28
4f
4r}
=29
{8.f
16f
8f
8f
=30
8e
8g
4c}
=31
{8.g
16g
8g
8g
=32
8a
8cc
8f}
{8b-
=33
8a
8g
8a
8b-
=34
8cc
8dd
8cc}
{8b-
=35
8a
8g
8a
8b-
=36
8cc
8dd
8cc}
{8b-
=37
4a
8g
8g
=38
4f
8r}
{8c
=39
4f
4a
=40
4.cc}
{8b-
=41
8a
8a
8g
8g
=42
4f
4r}
==
!!!AGN: Studenten -, Trink - Lied, Rundgesang
!!!ONB: ESAC (Essen Associative Code) Database: FINK
!!!AMT: simple duple
!!!AIN: vox
!!!EED: Helmut Schaffrath
!!!EEV: 1.0
*-
